X: 40091
T: Thunderstorm, The
R: reel
M: 4/4
K: Eminor
E^D|:DE EF GE (3EFE|BE AD GD FD|B,D DE FD (3DB,D|AE GE FD E^C|
DE EF GE (3EFE|BE AD GD FD|BE AD GD FD|GE ED E2 E^D:|
|:E^C FD GD BE|AE GE FD E^D|DB, E^C FD AD|GD F^C EB, GF|
E^C FD GD BE|AE GE FD EA|BE AF GE Ac|1 BA GF GE ED:|2 BA GF GE ED|E8||

